icon/gr/github.svg

<svg xmlns="http://www.w3.org/2000/svg" viewBox="0 0 24 24" height="1em" width="1em">
  <path fill="#333" fill-rule="evenodd" d="M11.9989871,1 C5.92550416,1 1,5.92482888 1,12.0003376 C1,16.8603395 4.15153934,20.9829338 8.52263728,22.4374904 C9.0729918,22.5387827 9.27355045,22.199116 9.27355045,21.9073943 C9.27355045,21.6467356 9.2640965,20.954572 9.25869425,20.0368642 C6.19899322,20.7013414 5.55342398,18.5620492 5.55342398,18.5620492 C5.0530403,17.2911692 4.33183953,16.9528531 4.33183953,16.9528531 C3.33309801,16.2708186 4.40747107,16.2843243 4.40747107,16.2843243 C5.51155652,16.3619816 6.09229872,17.4181221 6.09229872,17.4181221 C7.07348292,19.0988981 8.66714755,18.6133706 9.2938089,18.3317781 C9.39375058,17.6213819 9.67804414,17.1365297 9.99205009,16.86169 C7.54955646,16.5841493 4.98146045,15.6401056 4.98146045,11.4249977 C4.98146045,10.224347 5.41026428,9.24181221 6.11390773,8.47334172 C6.00046042,8.19512569 5.62297799,7.07618404 6.22195279,5.56220265 C6.22195279,5.56220265 7.14506277,5.26642929 9.24653918,6.68992296 C10.12373,6.44547101 11.0650726,6.32392032 12.0003376,6.31919335 C12.9349274,6.32392032 13.8755947,6.44547101 14.7541361,6.68992296 C16.8542619,5.26642929 17.7760214,5.56220265 17.7760214,5.56220265 C18.3763467,7.07618404 17.9988643,8.19512569 17.8860923,8.47334172 C18.5910863,9.24181221 19.0165137,10.224347 19.0165137,11.4249977 C19.0165137,15.6509101 16.444366,16.5807729 13.9944443,16.8529114 C14.3888087,17.192578 14.7406305,17.863808 14.7406305,18.890236 C14.7406305,20.3603241 14.7271248,21.5467939 14.7271248,21.9073943 C14.7271248,22.2018171 14.9256576,22.5441849 15.4834403,22.4368151 C19.8511618,20.9788821 23,16.8589889 23,12.0003376 C23,5.92482888 18.0744958,1 11.9989871,1"/>
</svg>

<svg xmlns="http://www.w3.org/2000/svg" width="24" height="24"><path fill="#333" fill-rule="evenodd" d="M11.999 1C5.926 1 1 5.925 1 12c0 4.86 3.152 8.983 7.523 10.437.55.102.75-.238.75-.53 0-.26-.009-.952-.014-1.87-3.06.664-3.706-1.475-3.706-1.475-.5-1.27-1.221-1.61-1.221-1.61-.999-.681.075-.668.075-.668 1.105.078 1.685 1.134 1.685 1.134.981 1.68 2.575 1.195 3.202.914.1-.71.384-1.195.698-1.47-2.442-.278-5.01-1.222-5.01-5.437 0-1.2.428-2.183 1.132-2.952-.114-.278-.491-1.397.108-2.91 0 0 .923-.297 3.025 1.127A10.536 10.536 0 0 1 12 6.32c.935.004 1.876.125 2.754.37 2.1-1.424 3.022-1.128 3.022-1.128.6 1.514.223 2.633.11 2.911.705.769 1.13 1.751 1.13 2.952 0 4.226-2.572 5.156-5.022 5.428.395.34.747 1.01.747 2.037 0 1.47-.014 2.657-.014 3.017 0 .295.199.637.756.53C19.851 20.979 23 16.859 23 12c0-6.075-4.926-11-11.001-11"/></svg>
